X:501
T:O'Dwyer's Reel
C:Cronin.
M:C|
L:1/8
K:D
G|"D"FADA FADA|FAAB A2 (GF)|"Em"GBEB GBEB|GBBc B2 (AG)|\
"D"FADA FADA|FAAB A2 (GF)|"Em"EFGB "A"ABcA|"D"d2 AG FD D2||
"A"BGAB c2 (AB)|cBAG "D"(FD) D2|Addc d2 (Ac)|d2 AG FD D2|\
"A"AGAB c2 (AB)|cBAG "D"FDDC|DEFG "A"ABcA|"D"d2 AG (FD) D|]
